rospo-icon-theme-classic-common/22x22/apps/sanctum-2.svg

<svg height="22" viewBox="0 0 22 22" width="22" xmlns="http://www.w3.org/2000/svg"><path d="m11 1.5v10h10a10 10 0 0 0 -10-10zm0 10h-10a10 10 0 0 0 10 10z" opacity=".2"/><path d="m11 1v10h10a10 10 0 0 0 -10-10zm0 10h-10a10 10 0 0 0 10 10z" fill="#e4e4e4"/><path d="m11 1v .5a10 10 0 0 1 9.974609 9.5h.025391a10 10 0 0 0 -10-10zm-10 10a10 10 0 0 0  .02539.5h9.97461v-.5z" fill="#fff" opacity=".2"/><circle cx="11" cy="11.5" opacity=".2" r="8"/><circle cx="11" cy="11" fill="#fff" r="8"/><circle cx="11" cy="11" fill="#3ca2e4" r="6"/><path d="m9 8.4999h4v3h-4v3h4" style="opacity:.2;fill:none;stroke:#000;stroke-width:2;stroke-linecap:round;stroke-linejoin:round"/><path d="m9 8h4v3h-4v3h4" fill="none" stroke="#ffc34c" stroke-linecap="round" stroke-linejoin="round" stroke-width="2"/><path d="m9 7a1.0001 1.0001 0 0 0 -.9804688 1.2460938 1.0001 1.0001 0 0 1  .9804688-.7460938h4a1.0001 1.0001 0 0 1 1 1v-.5a1.0001 1.0001 0 0 0 -1-1zm0 3a1.0001 1.0001 0 0 0 -1 1v .5a1.0001 1.0001 0 0 1 1-1h3v-.5zm1 3v .5h3a1.0001 1.0001 0 0 1  .980469.753906 1.0001 1.0001 0 0 0 -.980469-1.253906z" fill="#fff" fill-rule="evenodd" opacity=".2"/></svg>

<svg xmlns="http://www.w3.org/2000/svg" width="22" height="22" version="1.1" viewBox="0 0 22 22">
 <path d="m 11,1.5 0,10 10,0 A 10,10 0 0 0 11,1.5 Z m 0,10 -10,0 a 10,10 0 0 0 10,10 l 0,-10 z" style="opacity:0.2"/>
 <path style="fill:#cccccc" d="m 11,1 0,10 10,0 A 10,10 0 0 0 11,1 Z m 0,10 -10,0 a 10,10 0 0 0 10,10 l 0,-10 z"/>
 <path style="opacity:0.2;fill:#ffffff" d="m 11,1 0,0.5 A 10,10 0 0 1 20.974609,11 L 21,11 A 10,10 0 0 0 11,1 Z M 1,11 a 10,10 0 0 0 0.02539,0.5 L 11,11.5 11,11 1,11 Z"/>
 <circle cx="11" cy="11.5" r="8" style="opacity:0.2"/>
 <circle style="fill:#ffffff" cx="11" cy="11" r="8"/>
 <circle cx="11" cy="11" r="6" style="fill:#3ca2e4"/>
 <path d="m 9,8.4999 4,0 0,3 -4,0 0,3 4,0" style="opacity:0.2;fill:none;stroke:#000000;stroke-width:2;stroke-linecap:round;stroke-linejoin:round"/>
 <path style="fill:none;stroke:#ffc34c;stroke-width:2;stroke-linecap:round;stroke-linejoin:round" d="m 9,8 4,0 0,3 -4,0 0,3 4,0"/>
 <path style="opacity:0.2;fill:#ffffff;fill-rule:evenodd" d="M 9,7 A 1.0001,1.0001 0 0 0 8.0195312,8.2460938 1.0001,1.0001 0 0 1 9,7.5 l 4,0 a 1.0001,1.0001 0 0 1 1,1 L 14,8 A 1.0001,1.0001 0 0 0 13,7 L 9,7 Z m 0,3 a 1.0001,1.0001 0 0 0 -1,1 l 0,0.5 a 1.0001,1.0001 0 0 1 1,-1 l 3,0 0,-0.5 -3,0 z m 1,3 0,0.5 3,0 A 1.0001,1.0001 0 0 1 13.980469,14.253906 1.0001,1.0001 0 0 0 13,13 l -3,0 z"/>
</svg>
